X:16
T:Johnny, Bring the Jug Around the Hill
M:2/4
L:1/16
Z:jason
B: Bob Walters, 1950
K:A
Ac | efec BAcd | ecBA c2cd | efec BAcd | ecBc A2Ac |
efec BAcd | ecBA c2cd | efec BAcd | ecBc [e2A2][e2A2] ||
[E2A,2][A2E2] [c3e3]B | [e2A2][eB][eA] cBAF | [A2E2][e2A2] BAcB | AcBA [AF][AD][A2E2] |
[e3A3][eA] BAcB | AcBA cBcd | efec BAcd | ecBc [e2A2][e2A2] ||
[f2A2][a2A2] [a3A3][aA] | [b2A2][a2A2] [aA][bA][aA][eA] | [f2A2][a2A2] [aA][bA][aA][fA] | [e2e2][ec][eB] [ec][eB][e2A2] |
[f2A2][a2A2] [a3A3][aA] | [b2A2][a2A2] [aA][bA][aA][eA] | [f2A2][a2A2] [aA][bA][aA][fA] | [e2e2][e2c2] [e2e2] :|

